X:176
T:Cottage In the Grove, The
D:Arty McGlynn & Nollaig Casey
N:Mistakenly called "Lad O'Byrnes" on the CD
Z:Nigel Gatherer
M:4/4
L:1/8
K:A dorian
A3 B AE (3EEE|GABd (3efg ed|e a2 f gfdB|BcBA BGEG|ABAG AE (3EEE|
GABd (3efg ed|e a2 f gfed|BcBG A3 z::a3 b agef|gedc Bd G2|(3efg fa gedB|
BcBA BG E2|aaab agef|gedB G3 B|AAAc (3efg dg|1 edcB cAeg:|2 edcB cA A2|]
<end>
<start>
